X:1     %Music
T:Trimdon Grange Explosion
B:Palmer, R,A Ballad History of England,BT Batsford Ltd, 1979
C:Thomas Armstrong, 1882
S:R Sewell, Newcastle, 1951
Z:A L Lloyd
F:http://www.folkinfo.org/songs
Q:1/4=100     %Tempo
M:6/8     %Meter
L:1/8     %
K:D
A |F2 F D E F |E D z =C2  D |E2 D D2 D | D2-D3
w:Lets not think a-bout to-mor-row, Lest we dis-ap-poin-ted be*
D |F2 A B2 B |A2 A (AB) c |d2 d A2 F | G2-G3
w: Our joys may turn to sor-row As_ we all may dai-ly see*
D |F2 A B2 B |A2 A (AB) c |d2 d A2 F | G2-G3
w:To-day we're strong and heal-thy But_ how soon there comes a change*
A |F F F D E F |E2 D =C2 D |E2 D D2 D | D2-D3 |]
w:As we may see from the ex-plo-sion That has been at Trim-don Grange*